assets/tmux/mono.svg

<svg viewBox="0 0 24 24" xmlns="http://www.w3.org/2000/svg"><path d="m24 2.251v8.249h-11.55v-10.5h9.3a2.251 2.251 0 0 1 2.25 2.251zm-11.55 9.149h11.55v10.5h-.008a2.25 2.25 0 0 1 -2.242 2.1h-19.5a2.247 2.247 0 0 1 -2.242-2.1h-.008v-19.649a2.251 2.251 0 0 1 2.25-2.251h9.3v21.6h.9zm11.242 10.5h-23.384a1.948 1.948 0 0 0 1.942 1.8h19.5a1.95 1.95 0 0 0 1.942-1.8z"/></svg>

<svg xmlns="http://www.w3.org/2000/svg" viewBox="0 0 24 24"><path d="M24 2.251V10.5H12.45V0h9.3A2.25 2.25 0 0 1 24 2.251M12.45 11.4H24v10.5h-.008A2.25 2.25 0 0 1 21.75 24H2.25a2.247 2.247 0 0 1-2.242-2.1H0V2.251A2.25 2.25 0 0 1 2.25 0h9.3v21.6h.9zm11.242 10.5H.308a1.95 1.95 0 0 0 1.942 1.8h19.5a1.95 1.95 0 0 0 1.942-1.8"/></svg>
